src/24/actions/distribute-unclump.svg

<svg xmlns="http://www.w3.org/2000/svg" viewBox="0 0 24 24"><path d="M4 5v15h4V5H4zm11 0v4h5V5h-5zM9 6v1h5V6H9zm8 4v5h1v-5h-1zm-2 6v4h5v-4h-5zm-6 2v1h5v-1H9z" fill="currentColor" color="#5d656b"/></svg>

<svg xmlns="http://www.w3.org/2000/svg" viewBox="0 0 24 24">
  <defs id="defs3051">
    <style type="text/css" id="current-color-scheme">
      .ColorScheme-Text {
        color:#5d656b;
      }
      </style>
  </defs>
 <path style="fill:currentColor;fill-opacity:1;stroke:none" 
     d="M 4 5 L 4 20 L 8 20 L 8 19 L 8 6 L 8 5 L 4 5 z M 15 5 L 15 9 L 20 9 L 20 5 L 15 5 z M 9 6 L 9 7 L 14 7 L 14 6 L 9 6 z M 17 10 L 17 15 L 18 15 L 18 10 L 17 10 z M 15 16 L 15 20 L 20 20 L 20 16 L 15 16 z M 9 18 L 9 19 L 14 19 L 14 18 L 9 18 z "
     class="ColorScheme-Text"
     />
</svg>
